X:1
T:Title
%%score { 1 | 2 }
L:1/8
M:4/4
K:Eb
V:1 treble nm="Grand Piano"
V:2 bass 
V:1
 z4 z2[Q:1/4=100] EF | G2 G2 G2 FE | [GB]2 [GB]2 [GB]2 [EG][FA] | [GB]2 [Ac][GB] G2 E2 | %4
 [EG]4 [DF]2 EF | G2 G2 G2 FE | [GB]2 [GB]2 [GB]2 [EG][FA] | [GB]2 [Ac][GB] [B,EG]2 [G,E]2 | %8
[M:3/4] [A,DF]4 [G,E]2 |[M:1/4] [EGB]2 |[M:4/4] c2 Ac e2 c2 | [GB]4 G2 G2 | F2 =Ac e2 [Ae]2 | %13
 d4 B2 cd | [Ge]2 [Ae]2 [Ge]2 [GB][GB] | [EAc]2 [EAc]2 [EGB]2 [B,EG][B,FA] | %16
 [EGB]2 [EAc][EGB] [B,EG]2 [G,E]2 |[M:3/4] [A,DF]4 [G,E]2 |] %18
V:2
 z4 z2 [E,G,][E,A,E] | [E,B,E]2 [E,B,E]2 [E,B,E]2 [E,A,E][E,G,] | %2
 [E,E]2 [E,E]2 [E,E]2 [E,B,][E,B,] | [E,E]2 [E,E][E,E] [E,B,E]2 [E,G,]2 | %4
 [B,,B,]4 [B,,B,]2 [E,G,][E,A,E] | [E,B,E]2 [E,B,E]2 [E,B,E]2 [E,A,E][E,G,] | %6
 [E,E]2 [E,E]2 [E,E]2 [E,B,][E,B,] | [E,E]2 [E,E][E,E] E,2 E,2 |[M:3/4] B,,4 E,2 |[M:1/4] E,2 | %10
[M:4/4][K:treble] [A,EA]2 [A,C][A,EA] [A,CA]2 [A,EA]2 | [E,E]4 [E,B,E]2 [E,B,E]2 | %12
 [F,=A,E]2 [F,CE][F,A,E][K:treble] [F,CF]2 [F,F]2 | [B,FA]4 [B,DA]2 [B,DA][B,A] | %14
 [E,B,]2 [E,C]2 [E,B,]2 [E,E][E,E] | A,2 A,2 E,2 E,E, | E,2 E,E, E,2 E,2 |[M:3/4] B,,4 E,2 |] %18

